clock-end.svg

<svg fill="currentColor" viewBox="0 0 24 24"><path d="M12 1C8.14 1 5 4.14 5 8a7 7 0 0 0 7 7c3.86 0 7-3.13 7-7 0-3.86-3.14-7-7-7m0 2.15c2.67 0 4.85 2.17 4.85 4.85s-2.18 4.85-4.85 4.85A4.85 4.85 0 0 1 7.15 8 4.85 4.85 0 0 1 12 3.15M11 5v3.69l3.19 1.84.75-1.3-2.44-1.41V5M15 16v3H3v2h12v3l4-4m0 0v4h2v-8h-2"/></svg>

<svg  viewBox="0 0 24 24" fill="currentColor"><path  d="M12,1C8.14,1 5,4.14 5,8A7,7 0 0,0 12,15C15.86,15 19,11.87 19,8C19,4.14 15.86,1 12,1M12,3.15C14.67,3.15 16.85,5.32 16.85,8C16.85,10.68 14.67,12.85 12,12.85A4.85,4.85 0 0,1 7.15,8A4.85,4.85 0 0,1 12,3.15M11,5V8.69L14.19,10.53L14.94,9.23L12.5,7.82V5M15,16V19H3V21H15V24L19,20M19,20V24H21V16H19"/></svg>
